src/pos-icons/snowboard.svg

<svg height="24" viewBox="0 0 24 24" width="24" xmlns="http://www.w3.org/2000/svg"><path d="m15.4 5.4c0-1.1.9-2 2-2s2 .9 2 2-.9 2-2 2-2-.9-2-2m6.6 13.8c-.6.6-1.2 1-1.9 1.3s-1.5.5-2.3.5h-11.6c-.8 0-1.6-.2-2.3-.5s-1.3-.7-1.9-1.3l.9-.9c.4.4.9.8 1.5 1 .5.3 1 .4 1.5.4l3.8-3.7-1.2-3.5c-.2-.6.1-1.1.6-1.5l1.9-2h-5v-2h8c.5 0 .7.1 1 .3l2.3 2.2c1 1 2.2 1.5 3.6 1.5l.1 2.1c-1.9 0-3.6-.7-5.1-2.1l-.7-.7-2.3 2.4 2.1 2.3v4.7h2.8c.6 0 1.2-.1 1.8-.4.6-.2 1.1-.6 1.5-1zm-13.2.5h4.2v-3.9l-1.3-1.2v2.2z"/></svg>

<?xml version="1.0" encoding="UTF-8"?><!DOCTYPE svg PUBLIC "-//W3C//DTD SVG 1.1//EN" "http://www.w3.org/Graphics/SVG/1.1/DTD/svg11.dtd"><svg xmlns="http://www.w3.org/2000/svg" xmlns:xlink="http://www.w3.org/1999/xlink" version="1.1" id="mdi-snowboard" width="24" height="24" viewBox="0 0 24 24"><path d="M15.4 5.4C15.4 4.3 16.3 3.4 17.4 3.4C18.5 3.4 19.4 4.3 19.4 5.4C19.4 6.5 18.5 7.4 17.4 7.4C16.3 7.4 15.4 6.5 15.4 5.4M22 19.2C21.4 19.8 20.8 20.2 20.1 20.5C19.4 20.8 18.6 21 17.8 21H6.2C5.4 21 4.6 20.8 3.9 20.5C3.2 20.2 2.6 19.8 2 19.2L2.9 18.3C3.3 18.7 3.8 19.1 4.4 19.3C4.9 19.6 5.4 19.7 5.9 19.7L9.7 16L8.5 12.5C8.3 11.9 8.6 11.4 9.1 11L11 9H6V7H14C14.5 7 14.7 7.1 15 7.3L17.3 9.5C18.3 10.5 19.5 11 20.9 11L21 13.1C19.1 13.1 17.4 12.4 15.9 11L15.2 10.3L12.9 12.7L15 15V19.7H17.8C18.4 19.7 19 19.6 19.6 19.3C20.2 19.1 20.7 18.7 21.1 18.3L22 19.2M8.8 19.7H13V15.8L11.7 14.6V16.8L8.8 19.7Z" /></svg>
